svg/fluentui-system-icons/ic_fluent_speaker_2_16_filled.svg

<svg width="16" height="16" viewBox="0 0 16 16" fill="none" xmlns="http://www.w3.org/2000/svg">
<path d="M8.99998 2.50001C8.99998 2.29898 8.87957 2.11749 8.69435 2.03934C8.50912 1.96119 8.2951 2.00157 8.15109 2.14185L5.22438 4.99273H3.5C2.67157 4.99273 2 5.66431 2 6.49273V9.48172C2 10.3101 2.67157 10.9817 3.5 10.9817H5.22314L8.14957 13.8567C8.29326 13.9978 8.50762 14.039 8.69337 13.9611C8.87911 13.8832 8.99998 13.7014 8.99998 13.5V2.50001ZM10.1113 5.18874C10.2832 4.97264 10.5977 4.93682 10.8138 5.10873L10.8147 5.1094L10.8156 5.11015L10.8177 5.11188L10.8231 5.11628L10.8381 5.12882C10.8499 5.13885 10.8652 5.15224 10.8835 5.16904C10.9201 5.20261 10.9689 5.2499 11.0257 5.31119C11.1392 5.43362 11.2857 5.61296 11.4306 5.85143C11.7222 6.33096 12.0043 7.04439 12.0043 7.99855C12.0043 8.95268 11.7222 9.66687 11.4309 10.1471C11.286 10.3859 11.1397 10.5657 11.0263 10.6884C10.9695 10.7498 10.9208 10.7973 10.8842 10.8309C10.8645 10.849 10.8444 10.8666 10.824 10.8838L10.8155 10.8907L10.8147 10.8914C10.8147 10.8914 10.3683 11.1337 10.112 10.8129C9.94042 10.5983 9.97432 10.2858 10.1871 10.1128L10.1887 10.1115L10.1879 10.1122L10.1896 10.1108L10.1887 10.1115C10.1916 10.109 10.1979 10.1036 10.207 10.0952C10.2252 10.0784 10.2547 10.05 10.2918 10.0098C10.3662 9.92923 10.4703 9.80248 10.5759 9.62847C10.7854 9.28301 11.0043 8.74609 11.0043 7.99855C11.0043 7.25106 10.7855 6.71522 10.5762 6.3709C10.4707 6.19744 10.3667 6.07121 10.2924 5.99105C10.2553 5.95104 10.2258 5.92278 10.2077 5.90613C10.1986 5.89781 10.1924 5.89242 10.1895 5.88995L10.1905 5.89071C9.97476 5.71873 9.93944 5.40472 10.1113 5.18874ZM11.813 3.10886C11.597 2.93686 11.2825 2.97255 11.1104 3.18858C10.9385 3.40451 10.9746 3.71932 11.1904 3.89138L11.2014 3.9006C11.2123 3.90975 11.2298 3.92484 11.2531 3.94582C11.2998 3.98781 11.3693 4.05318 11.4542 4.14133C11.6242 4.31792 11.8541 4.58411 12.0845 4.93509C12.5449 5.63643 13.0033 6.66847 13.0033 8.00405C13.0033 9.33953 12.545 10.3694 12.0848 11.0685C11.8545 11.4184 11.6248 11.6835 11.4549 11.8593C11.3701 11.947 11.3006 12.0121 11.254 12.0538C11.2307 12.0747 11.2132 12.0897 11.2023 12.0988L11.1908 12.1083L11.1899 12.1091C10.9745 12.2808 10.9385 12.5945 11.1097 12.8105C11.2811 13.0269 11.5964 13.0628 11.8129 12.8913L11.8458 12.8642C11.8643 12.8487 11.8898 12.8268 11.9213 12.7986C11.9841 12.7423 12.071 12.6607 12.1739 12.5543C12.3793 12.3418 12.65 12.0286 12.9201 11.6183C13.4608 10.797 14.0033 9.57884 14.0033 8.00405C14.0033 6.42934 13.4608 5.20938 12.9204 4.38627C12.6504 3.97503 12.3798 3.66089 12.1745 3.4477C12.0718 3.34097 11.9849 3.25908 11.9221 3.20255C11.8907 3.17426 11.8652 3.15228 11.8467 3.13665L11.8243 3.11798L11.8172 3.11222L11.8148 3.11024L11.813 3.10886ZM10.1895 5.88995L10.1881 5.88874Z" fill="#212121"/>
</svg>

<svg xmlns="http://www.w3.org/2000/svg" width="16" height="16"><path d="M9 2.5a.5.5 0 0 0-.849-.358l-2.927 2.85H3.5a1.5 1.5 0 0 0-1.5 1.5v2.99a1.5 1.5 0 0 0 1.5 1.5h1.723l2.927 2.875A.5.5 0 0 0 9 13.5v-11Zm1.111 2.689a.5.5 0 0 1 .703-.08l.002.001.002.002.005.004.015.013.046.04c.036.034.085.08.142.142.113.123.26.302.405.54.291.48.573 1.193.573 2.148 0 .954-.282 1.668-.573 2.148a3.394 3.394 0 0 1-.405.541 2.495 2.495 0 0 1-.202.196l-.008.007h-.001s-.447.243-.703-.078a.5.5 0 0 1 .075-.7l.002-.002-.001.001.002-.001h-.001l.018-.016c.018-.017.048-.045.085-.085a2.4 2.4 0 0 0 .284-.382c.21-.345.428-.882.428-1.63 0-.747-.218-1.283-.428-1.627a2.382 2.382 0 0 0-.368-.465.5.5 0 0 1-.096-.717Zm1.702-2.08a.5.5 0 1 0-.623.782l.011.01.052.045c.047.042.116.107.201.195.17.177.4.443.63.794.46.701.92 1.733.92 3.069a5.522 5.522 0 0 1-.92 3.065c-.23.35-.46.614-.63.79a3.922 3.922 0 0 1-.252.24l-.011.01h-.001a.5.5 0 0 0 .623.782l.033-.027.075-.065c.063-.057.15-.138.253-.245a6.44 6.44 0 0 0 .746-.936 6.522 6.522 0 0 0 1.083-3.614 6.542 6.542 0 0 0-1.083-3.618 6.517 6.517 0 0 0-.745-.938 4.935 4.935 0 0 0-.328-.311l-.023-.019-.007-.006-.002-.002-.002-.001ZM10.19 5.89l-.002-.001Z"/></svg>
